svg/cloudflare.svg

<svg viewBox="0 0 20 20" xmlns="http://www.w3.org/2000/svg">
<rect width="100%" height="100%" fill="#F4801F"/>
<path fill-rule="evenodd" clip-rule="evenodd" d="M13.2742 12.8271L13.183 13.1403C13.1733 13.1723 13.1533 13.2002 13.1261 13.22C13.0989 13.2398 13.066 13.2503 13.0323 13.25H1.1533C1.12314 13.2499 1.09404 13.2389 1.07136 13.2193C1.04867 13.1996 1.03392 13.1724 1.02982 13.1428C0.973106 12.7676 0.997481 12.3847 1.10133 12.0195C1.20517 11.6543 1.38612 11.3151 1.63218 11.0245C1.87824 10.7338 2.1838 10.4983 2.52862 10.3336C2.87343 10.1688 3.24964 10.0785 3.63231 10.0687C3.53593 9.69114 3.5598 9.29327 3.70065 8.92969C3.84151 8.56612 4.09244 8.25467 4.419 8.03808C4.74557 7.82149 5.13176 7.71039 5.52457 7.72003C5.91739 7.72966 6.29756 7.85956 6.61292 8.09189C6.90999 7.22662 7.48421 6.48127 8.24814 5.96934C9.01207 5.45741 9.92387 5.20694 10.8447 5.25606C11.7655 5.30519 12.6449 5.65122 13.349 6.24148C14.0531 6.83173 14.5432 7.63386 14.7449 8.52574C14.7478 8.54077 14.7495 8.55601 14.75 8.57132C14.7503 8.60016 14.7451 8.62881 14.7347 8.65572L14.3651 9.61459C14.073 10.3709 13.235 10.9904 12.4685 11.025L5.97422 11.1094C5.94093 11.1117 5.90906 11.1237 5.88257 11.1438C5.85607 11.1639 5.83612 11.1913 5.82519 11.2225C5.81791 11.2412 5.81529 11.2613 5.81755 11.2812C5.81982 11.3011 5.8269 11.3201 5.83819 11.3367C5.84948 11.3533 5.86465 11.3669 5.88241 11.3764C5.90016 11.3859 5.91997 11.3911 5.94016 11.3914L12.3723 11.4724C12.7121 11.4884 12.9897 11.6252 13.16 11.8581C13.3423 12.1113 13.3823 12.4549 13.2742 12.8271ZM15.2973 8.75503C15.3598 8.75168 15.4195 8.75 15.4764 8.75H15.4781C16.0219 8.75066 16.5582 8.87498 17.045 9.11325C17.5318 9.35153 17.956 9.69729 18.2844 10.1235C18.6128 10.5497 18.8365 11.0449 18.938 11.5702C19.0395 12.0956 19.0161 12.6369 18.8696 13.1518C18.8622 13.1804 18.8452 13.2057 18.8214 13.2235C18.7975 13.2413 18.7682 13.2507 18.7382 13.25H13.8224C13.8104 13.2493 13.7987 13.2458 13.7882 13.2399C13.7778 13.2339 13.7689 13.2256 13.7623 13.2156C13.7558 13.2057 13.7517 13.1943 13.7504 13.1825C13.7492 13.1707 13.7507 13.1587 13.7551 13.1476L13.8583 12.8826C14.1508 12.1319 14.9859 11.5171 15.7613 11.4819L17.1883 11.398C17.2217 11.3957 17.2536 11.3838 17.2801 11.3638C17.3067 11.3438 17.3266 11.3166 17.3376 11.2856C17.3447 11.2667 17.3471 11.2464 17.3446 11.2264C17.3421 11.2064 17.3347 11.1873 17.3231 11.1707C17.3122 11.1551 17.2977 11.1423 17.2808 11.1333C17.2639 11.1243 17.2451 11.1192 17.2259 11.1187L15.8517 11.0348C15.6992 11.0346 15.5488 11 15.4122 10.9335C15.2755 10.867 15.1562 10.7705 15.0635 10.6515C14.8801 10.3998 14.8401 10.0585 14.9492 9.68858L15.2051 8.828C15.2095 8.81244 15.2177 8.79817 15.229 8.78647C15.2403 8.77476 15.2544 8.76598 15.27 8.7609C15.2786 8.75728 15.2879 8.75529 15.2973 8.75503Z" fill="white"/>
</svg>

<svg xmlns="http://www.w3.org/2000/svg" viewBox="0 0 20 20">
  <rect width="100%" height="100%" fill="#F4801F"/>
  <path fill="#fff" fill-rule="evenodd" d="m13.27 12.83-.09.31a.16.16 0 0 1-.15.11H1.15a.12.12 0 0 1-.12-.1 2.66 2.66 0 0 1 1.5-2.82c.34-.16.72-.25 1.1-.26a1.87 1.87 0 0 1 .79-2.03 1.92 1.92 0 0 1 2.2.05 4.2 4.2 0 0 1 4.22-2.83 4.25 4.25 0 0 1 3.91 3.31c0 .03 0 .06-.02.09l-.36.95a2.32 2.32 0 0 1-1.9 1.42l-6.5.08a.17.17 0 0 0-.14.11.12.12 0 0 0 .05.16l.06.01 6.43.08a1 1 0 0 1 .79.39c.18.25.22.6.11.97Zm2.03-4.07.18-.01a3.58 3.58 0 0 1 2.8 1.37 3.44 3.44 0 0 1 .59 3.03c0 .03-.02.06-.05.07a.13.13 0 0 1-.08.03h-4.92l-.03-.01a.08.08 0 0 1-.04-.06v-.03l.1-.27a2.32 2.32 0 0 1 1.91-1.4l1.43-.08a.17.17 0 0 0 .15-.11.12.12 0 0 0-.06-.16.12.12 0 0 0-.05-.01l-1.38-.09a1 1 0 0 1-.79-.38c-.18-.25-.22-.6-.11-.96l.26-.86a.1.1 0 0 1 .06-.07h.03Z" clip-rule="evenodd"/>
</svg>
